X:2
T:Ma Yofus (How Beautiful)
%O:Klezmer
Q:1/4=150
M:4/4
L:1/8
K:F
%%MIDI channel 1
%%MIDI program 1 15
%%MIDI beat 120 110 95 2
%%MIDI chordprog 42
%%MIDI bassprog 43
 "A"(AB^cd efed) |.^c2(cA) "Dm".d2.d2 |"Gm".e2.e2 (gfed) |"A".^c2(cA) "Dm".d4 |
 "A"(AB^cd efed) |.^c2(cA) "Dm".d2.d2 |"Gdim".^c2.c2 (BA)(BG) |"A".A4 z4 |
 "F".f2 .a4 .a2 |"C".g2.g2 .c4 |(cdef gabg) |"F".a4 "A"(agfe) |
"Dm".d2 .f4 .f2 |"A".e2.e2 .A4 |(AB^cd efce) |"Dm".d8 ||
W:
W:
W:Arrangement Copyright (C) 1999 Voluntocracy.
W:
W:Permission is granted to copy and distribute modified or unmodified versions of this music
W:provided the copyright notice and this permission notice are preserved on all copies and the
W:entire such work is distributed under the terms of a permission notice identical to this one.
